!!!!SEGMENT: pl-kk--kk-i-513--004_haser-august-ferdinand--miserere-quoniam-iniquitatem.krn
!!!cenid: 17xx:1844
!!!COM: Häser, August Ferdinand
!!!COM-rismid: pe37240
!!!CDT: 1779/10/15-1844/11/01
!!!CNT: German
!!!OPR: Miserere
!!!OTL: Quoniam iniquitatem
!!!OMV: 004
!!!PDT:
!!!AGN: Sacred
!!!SMS-siglum: PL-Kk
!!!SMS-shelfmark: Kk.I.513
!!!SMS-shelfwork: 001-004 M
!!!SMS-variant:
!!!SMS-altvar:
!!!NIFC-rismid: 1001138474
!!!URL-scan: http://repozytorium.nifc.pl/skany/pl-kk-nut--i-513
!!!ONB-nifc:
**kern	**kern	**kern	**text	**dynam	**kern	**text	**dynam	**kern	**text	**dynam	**kern	**text	**dynam
*part6	*part5	*part4	*part4	*part4	*part3	*part3	*part3	*part2	*part2	*part2	*part1	*part1	*part1
*staff6	*staff5	*staff4	*staff4	*	*staff3	*staff3	*	*staff2	*staff2	*	*staff1	*staff1	*
*I"	*I"	*I"Basso.	*	*	*I"Tenore.	*	*	*I"Alto	*	*	*I"Soprano.	*	*
*	*I'org	*I'B	*	*	*I'T	*	*	*I'A	*	*	*I'S	*	*
*clefF4	*clefG2	*clefF4	*	*	*clefC4	*	*	*clefG2	*	*	*clefG2	*	*
*k[]	*k[]	*k[]	*	*	*k[]	*	*	*k[]	*	*	*k[]	*	*
*d:	*d:	*d:	*	*	*d:	*	*	*d:	*	*	*d:	*	*
*M4/4	*M4/4	*M4/4	*	*	*M4/4	*	*	*M4/4	*	*	*M4/4	*	*
*met(c)	*met(c)	*met(c)	*	*	*met(c)	*	*	*met(c)	*	*	*met(c)	*	*
=1	=1	=1	=1	=1	=1	=1	=1	=1	=1	=1	=1	=1	=1
*2\right	*2\right	*	*	*	*	*	*	*	*	*	*	*	*
!LO:SIC:o:s:=:v:brak nazwy instrumentu	!LO:SIC:o:s:=:v:all\right	!LO:SIC:o:s:=:v:all\right	!	!LO:DY:rj:a	!LO:SIC:o:s:=:v:all\right	!	!	!	!	!LO:DY:a	!LO:SIC:o:s:=:v:all\right	!	!LO:DY:rj:a
2G\ 2C\	2cc\ 2e\	4.C/	Quo-	ff	4.e\	Quo-	ff	4.g/	Quo-	f	4.cc\	Quo-	fz
.	.	8C/	-ni-	.	8e\	-ni-	.	8g/	-ni-	.	8cc\	-ni-	.
*	*	*	*	*	*2\right	*	*	*	*	*	*2\right	*	*
2G\ 2D\	[>2b\ [>2f\	[2D/	-am	.	[2f\	-am	.	[2g/	-am	.	[2b\	-am	.
=2	=2	=2	=2	=2	=2	=2	=2	=2	=2	=2	=2	=2	=2
4G\ 4D\	4b\] 4f\]	4D/]	.	.	4f\]	.	.	4g/]	.	.	4b/]	.	.
!	!	!	!	!LO:DY:rj:a	!	!	!	!	!	!LO:DY:rj:b	!	!	!LO:DY:rj:a
2.c\ 2.E\	2.b-X\ 2.g\	4E/	i-	p	4c\	i-	pp	4g/	i-	pp	4b-X/	in-	pp
.	.	4E/	-ni-	.	4c\	-ni-	.	4g/	-ni-	.	4b-/	-i-	.
.	.	4E/	-qui-	.	4c\	-qui-	.	4g/	-qui-	.	4b-/	-qui-	.
=3	=3	=3	=3	=3	=3	=3	=3	=3	=3	=3	=3	=3	=3
*^	*^	*	*	*	*	*	*	*	*	*	*	*	*
*	*	*	*	*2\right	*	*	*	*	*	*	*	*	*	*	*
2c/	2F\	2a/	4g\	(2F\	-ta-	.	2c\	-ta-	.	4g/	-ta-	.	2.a/	-ta-	.
.	.	.	8f\L	.	.	.	.	.	.	8f/L	.	.	.	.	.
.	.	.	8e\J	.	.	.	.	.	.	8e/J	.	.	.	.	.
2ryy	4D\	2f/	2d\	4D/)	.	.	2d\	-tem	.	2f/	-tem	.	.	.	.
.	4C\	.	.	4C/	-tem	.	.	.	.	.	.	.	4a/	-tem	.
=4	=4	=4	=4	=4	=4	=4	=4	=4	=4	=4	=4	=4	=4	=4	=4
2d/	2BB-X\	1g/	4f\	(2BB-X/	me-	.	(2d\	me-	.	(4f/	me-	.	1g/	me-	.
.	.	.	8e\L	.	.	.	.	.	.	8e/L	.	.	.	.	.
.	.	.	8d\J	.	.	.	.	.	.	8d/J	.	.	.	.	.
!	!	!	!	!LO:TX:a:t=c	!	!	!	!	!	!	!	!	!	!	!
4c/	2C\	.	2e\	2C/)	.	.	4c\	.	.	2e/)	.	.	.	.	.
4B-X/	.	.	.	.	.	.	4B-X\	.	.	.	.	.	.	.	.
*v	*v	*	*	*	*	*	*	*	*	*	*	*	*	*	*
*	*v	*v	*	*	*	*	*	*	*	*	*	*	*	*
=5	=5	=5	=5	=5	=5	=5	=5	=5	=5	=5	=5	=5	=5
4F\	4f/ 4A/	4F\	-am	.	4A\)	-am	.	4f/	-am	.	4f/	-am	.
!	!	!	!	!	!	!	!	!LO:TX:b:t=a	!	!	!	!	!
!	!	!	!	!	!	!	!	!LO:TX:a:t=a	!	!	!	!	!
2.f\	2a/	4r	.	.	4f\	e-	.	4a/	e-	.	4a/	e-	.
!	!	!	!	!	!	!	!	!LO:LB:g=original	!	!	!	!	!
.	.	2r	.	.	4f\	-go	.	4a/	-go	.	4a/	-go	.
.	4dd/	.	.	.	4f\	co-	.	4a/	co-	.	4dd\	co-	.
=6	=6	=6	=6	=6	=6	=6	=6	=6	=6	=6	=6	=6	=6
*^	*	*	*	*	*	*	*	*	*	*	*	*	*
1e/	4r	2dd/ 2g/	4r	.	.	[1e\	-gnos-	.	1g/	-gno-	.	2dd\	-gnos-	.
.	2.A\	.	4A\	e-	.	.	.	.	.	.	.	.	.	.
!	!	!	!	!	!	!	!	!	!	!	!	!LO:SIC:l:s=[[s]]co	!	!
.	.	2cc#X/	4A\	-go	.	.	.	.	.	.	.	2cc#X\	-[[s]]ca	.
.	.	.	4A\	cog-	.	.	.	.	.	.	.	.	.	.
*v	*v	*	*	*	*	*	*	*	*	*	*	*	*	*
!LO:LB:g=original	!	!	!LO:LB:g=original	!	!	!	!	!	!	!	!LO:LB:g=original	!	!
=7	=7	=7	=7	=7	=7	=7	=7	=7	=7	=7	=7	=7	=7
*	*^	*	*	*	*	*	*	*	*	*	*	*	*
!	!	!LO:N:vis=2	!	!	!	!	!	!	!	!	!	!	!	!
1d\ 1D\	4r	2.f\	2D\	-[[g]]nos-	.	2e\]	.	.	2.f/	-sco	.	4r	.	.
.	2a/	.	.	.	.	.	.	.	.	.	.	4a/	e-	.
.	.	.	2d\	-sco,	.	[2d\	.	.	.	.	.	4a/	-go	.
.	4ff/	4a\	.	.	.	.	.	.	4a/	co-	.	4ff\	co-	.
!	!	!	!	!	!	!LO:LB:g=original	!	!	!	!	!	!	!	!
=8	=8	=8	=8	=8	=8	=8	=8	=8	=8	=8	=8	=8	=8	=8
*^	*	*	*	*	*	*	*	*	*	*	*	*	*	*
2d/	4r	2ff/	2.a\	4r	.	.	2d\]	.	.	2.a/	-gno-	.	2ff\	-gnos-	.
.	2.A\	.	.	4A\	e-	.	.	.	.	.	.	.	.	.	.
!	!	!	!	!	!	!	!	!	!	!	!	!	!LO:SIC:l:s=[[s]]co	!	!
2c#X/	.	2ee/	.	4A\	-go	.	2c#X\	-[[s]]co	.	.	.	.	2ee\	-[[s]]ca	.
.	.	.	4g\	4A\	cog-	.	.	.	.	4g/	-sco	.	.	.	.
*v	*v	*	*	*	*	*	*	*	*	*	*	*	*	*	*
=9	=9	=9	=9	=9	=9	=9	=9	=9	=9	=9	=9	=9	=9	=9
!	!	!	!	!	!LO:DY:rj:a	!	!	!	!	!	!	!	!	!
[2B-X\	1dd/	2f\	2B-X\	-[[g]]nos-	f	4r	.	.	2f/	et	f	2.dd\	et	f
!	!	!	!	!	!	!	!	!LO:DY:rj	!	!	!	!	!	!
.	.	.	.	.	.	(4d\	et	ff	.	.	.	.	.	.
2d\ 2B-\]	.	4g\	2B-\	-co,	.	4g\)	.	.	2d/	pec-	.	.	.	.
.	.	4f\	.	.	.	4f\	pec-	.	.	.	.	4dd\	pec-	.
=10	=10	=10	=10	=10	=10	=10	=10	=10	=10	=10	=10	=10	=10	=10
*^	*	*	*	*	*	*	*	*	*	*	*	*	*	*
4e/	2.B-X\	4cc/	2g\	2.B-X\	et	.	4e\	-ca-	.	2g/	-ca-	.	4cc\	-ca-	.
2.c/	.	8dd/L	.	.	.	.	4c\	-tum	.	.	.	.	(8dd\L	-tum	.
.	.	8ee/J	.	.	.	.	.	.	.	.	.	.	8ee\J)	.	.
.	.	2ff/	2f\	.	.	.	2c\	me-	.	2f/	-tum	.	[2ff\	me-	.
.	4A\	.	.	4A\	pec-	.	.	.	.	.	.	.	.	.	.
=11	=11	=11	=11	=11	=11	=11	=11	=11	=11	=11	=11	=11	=11	=11	=11
2d/	4G\	2ff/	4b-X\	4G\	-ca-	.	2d\	.	.	4b-X/	me-	.	2ff\]	.	.
.	8A\L	.	8a\L	8A\L	-tum	.	.	.	.	8a/L	.	.	.	.	.
.	8B-X\J	.	8g\J	8B-X\J	.	.	.	.	.	8g/J	.	.	.	.	.
(4c/yy	4c\	2ee/	2g\	(4c\	me-	.	2c\	.	.	2g/	.	.	[2ee\	-um	.
4c/)	4B-X\	.	.	4B-\)	.	.	.	.	.	.	.	.	.	.	.
!LO:LB:g=original	!	!	!	!	!	!	!	!	!	!	!	!	!	!	!
=12	=12	=12	=12	=12	=12	=12	=12	=12	=12	=12	=12	=12	=12	=12	=12
2c/	4A\	2ee/	1f\	4A\	.	.	2c\	-um	.	1f/	-um	.	2ee\]	[[um]]	.
.	4F\	.	.	4F\	-um	.	.	.	.	.	.	.	.	.	.
!LO:SIC:n=2 s=4B-	!	!	!	!	!	!	!	!	!	!	!	!	!	!	!
!LO:SIC:n=1 s=2B-	!	!	!	!	!	!	!	!	!	!	!	!	!	!	!
2B/	4B\	2dd/	.	4B-X\	con-	.	[2B-X\	con-	.	.	.	.	[2dd\	con-	.
.	4A\	.	.	4A\	-tra	.	.	.	.	.	.	.	.	.	.
=13	=13	=13	=13	=13	=13	=13	=13	=13	=13	=13	=13	=13	=13	=13	=13
!LO:N:vis=2	!	!	!	!	!	!	!	!	!	!	!	!	!	!	!
2.B-X/	4G\	2dd/	4e\	4G\	me	.	2B-X\]	.	.	(4e/	con-	.	2dd\]	.	.
.	8F\L	.	8f\L	8F\L	est	.	.	.	.	8f/L	.	.	.	.	.
!	!	!	!	!LO:LB:g=original	!	!	!	!	!	!	!	!	!	!	!
.	8E\J	.	8g\J	8E\J	.	.	.	.	.	8g/J)	.	.	.	.	.
.	4A\	2cc#X/	2e\	(4A\	sem-	.	2A\	-tra	.	2e/	-tra	.	2cc#X\	-tra	.
4A/	4G\	.	.	4G\)	.	.	.	.	.	.	.	.	.	.	.
*v	*v	*	*	*	*	*	*	*	*	*	*	*	*	*	*
!	!	!	!	!	!	!	!	!	!	!	!	!LO:LB:g=original	!	!
=14	=14	=14	=14	=14	=14	=14	=14	=14	=14	=14	=14	=14	=14	=14
2A\ 2F\	1dd/	2d\	4F\	-per,	.	4A\	me	.	4d/	me	.	4dd\	me	.
.	.	.	(4F\	con-	.	(4A\	con-	.	(4d/	con-	.	2dd\	con-	.
4B-X\ 4G\	.	4e\	4G\)	.	.	4B-X^<\)	-[[tra]]-	.	4e/)	.	.	.	.	.
4c\ 4A\	.	4f#X\	4A\	-tra	.	4c\	-tra	.	4f#X/	-tra	.	4dd\	-tra	.
=15	=15	=15	=15	=15	=15	=15	=15	=15	=15	=15	=15	=15	=15	=15
2d\ 2B-X\	1dd/	2g\	2B-X\	me	.	2d\	me	.	2g/	me	.	2dd\	me	.
!	!	!	!LO:SIC:o:=:v:skreślone 2F	!	!	!	!	!	!	!	!	!	!	!
2B-\ 2G\	.	2e\	2G\	est	.	2B-X^<\	est	.	2e/	est	.	2dd\	est	.
*	*v	*v	*	*	*	*	*	*	*	*	*	*	*	*
!	!	!	!	!	!LO:LB:g=original	!	!	!	!	!	!	!	!
=16	=16	=16	=16	=16	=16	=16	=16	=16	=16	=16	=16	=16	=16
2A\	2dd\ 2f\	2A\	sem-	.	1A\	sem-	.	2f/	sem-	.	(2dd\	sem-	.
2A\ 2AA\	2cc#X\ 2e\	2AA/	.	.	.	.	.	2e/	.	.	2cc#X\)	.	.
=17	=17	=17	=17	=17	=17	=17	=17	=17	=17	=17	=17	=17	=17
2A\ 2D\	2dd\ 2f\	2D\	-per.	.	2A/	-per.	.	2f/	-per.	.	2dd\	-per.	.
2r	2r	2r	.	.	2r	.	.	2r	.	.	2r	.	.
==	==	==	==	==	==	==	==	==	==	==	==	==	==
*-	*-	*-	*-	*-	*-	*-	*-	*-	*-	*-	*-	*-	*-
!!!system-decoration: [(s1,s2,s3,s4)][(s5,s6)]
!!!RDF**kern: > = above
!!!RDF**kern: < = below
!!!EED: Leszek Kubiak
!!!EST: 2021-01-08
!!!ENC:Krzysztof Stępień
!!!END:2020-12-31
